sz-lotos/img/logo.svg

<svg width="289" height="86" viewBox="0 0 289 86" fill="none" xmlns="http://www.w3.org/2000/svg">
<path d="M39.0414 47.8527C38.1314 47.8527 37.4014 47.1127 37.4014 46.2127V34.5327C37.4014 34.0227 37.6314 33.5427 38.0414 33.2327L50.8814 23.2827C51.6014 22.7227 52.6314 22.8527 53.1814 23.5727C53.7414 24.2927 53.6114 25.3227 52.8914 25.8727L40.6914 35.3327V46.2127C40.6914 47.1227 39.9514 47.8527 39.0514 47.8527H39.0414Z" fill="url(#paint0_linear_2_4)"/>
<path d="M51.8714 78.9927C50.9614 78.9927 50.2314 78.2527 50.2314 77.3527V17.2327C50.2314 16.6027 50.5914 16.0327 51.1514 15.7627C51.7114 15.4927 52.3814 15.5527 52.8814 15.9427L65.7214 25.8927C66.1214 26.2027 66.3614 26.6827 66.3614 27.1927V46.7327C66.3614 47.6427 65.6214 48.3727 64.7214 48.3727C63.8214 48.3727 63.0814 47.6327 63.0814 46.7327V27.9927L53.5314 20.5827V77.3527C53.5314 78.2627 52.7914 78.9927 51.8914 78.9927H51.8714Z" fill="url(#paint1_linear_2_4)"/>
<path d="M57.9014 57.4127C56.9914 57.4127 56.2614 56.6727 56.2614 55.7727V4.99274L46.7114 12.4027V55.0527C46.7114 55.9627 45.9714 56.6927 45.0714 56.6927C44.1714 56.6927 43.4314 55.9527 43.4314 55.0527V11.6027C43.4314 11.0927 43.6614 10.6127 44.0714 10.3027L56.8914 0.342738C57.3814 -0.0372621 58.0614 -0.107262 58.6214 0.162738C59.1814 0.442738 59.5414 1.01274 59.5414 1.63274V55.7627C59.5414 56.6727 58.8014 57.4027 57.9014 57.4027V57.4127Z" fill="url(#paint2_linear_2_4)"/>
<path d="M51.8114 83.7427C51.6914 83.7427 51.5714 83.7327 51.4514 83.7027C35.1514 80.0427 23.0014 69.0627 16.3214 51.9527C11.3214 39.1527 11.1414 27.5927 11.1314 27.1127C11.1314 26.5427 11.4114 26.0127 11.8914 25.7127C12.3714 25.4027 12.9714 25.3727 13.4814 25.6127C36.1614 36.4027 45.8214 51.1727 49.9314 61.6627C54.4214 73.1127 53.4814 81.9227 53.4414 82.2927C53.3914 82.7527 53.1414 83.1727 52.7614 83.4427C52.4814 83.6427 52.1514 83.7427 51.8114 83.7427ZM14.5814 29.8027C14.9314 33.9227 16.0214 42.1727 19.4214 50.8427C25.5114 66.3827 35.8814 76.1927 50.2614 80.0227C50.2814 76.9427 49.8714 70.4127 46.8114 62.6827C43.0514 53.1827 34.4114 39.9427 14.5814 29.8027Z" fill="url(#paint3_linear_2_4)"/>
<path d="M40.8214 85.0828C25.3714 85.0828 15.6614 77.9328 9.94141 71.2228C2.39141 62.3428 0.131408 52.5528 0.0414076 52.1328C-0.0685924 51.6428 0.0414076 51.1328 0.361408 50.7428C0.671408 50.3528 1.14141 50.1328 1.64141 50.1328C25.8214 50.2028 38.6314 58.7828 45.1214 65.9728C52.2314 73.8528 53.5014 81.6927 53.5514 82.0227C53.6814 82.8927 53.1114 83.7127 52.2514 83.8827C48.1314 84.7127 44.3214 85.0728 40.8214 85.0728V85.0828ZM3.83141 53.4528C4.87141 56.6828 7.43141 63.2328 12.5314 69.1828C21.5814 79.7528 34.1614 83.7228 49.9414 80.9828C49.2314 78.4628 47.2914 73.2227 42.5614 68.0327C34.2414 58.9127 20.8814 53.8928 3.84141 53.4528H3.83141Z" fill="url(#paint4_linear_2_4)"/>
<path d="M51.9314 83.7427C51.5914 83.7427 51.2614 83.6427 50.9814 83.4427C50.6014 83.1727 50.3514 82.7527 50.3014 82.2927C50.2614 81.9227 49.3214 73.1127 53.8114 61.6627C57.9214 51.1727 67.5814 36.3927 90.2614 25.6127C90.7714 25.3727 91.3714 25.4027 91.8514 25.7127C92.3314 26.0227 92.6114 26.5527 92.6114 27.1127C92.6114 27.6027 92.4214 39.1527 87.4214 51.9527C80.7414 69.0627 68.6014 80.0427 52.2914 83.7027C52.1714 83.7327 52.0514 83.7427 51.9314 83.7427ZM89.1614 29.8027C69.3314 39.9427 60.6914 53.1827 56.9314 62.6827C53.8714 70.4127 53.4714 76.9427 53.4814 80.0227C67.8614 76.1927 78.2314 66.3827 84.3214 50.8427C87.7214 42.1727 88.8114 33.9227 89.1614 29.8027Z" fill="url(#paint5_linear_2_4)"/>
<path d="M62.9214 85.0828C59.4114 85.0828 55.6114 84.7128 51.4914 83.8928C50.6314 83.7228 50.0614 82.9028 50.1914 82.0328C50.2414 81.7028 51.5114 73.8628 58.6214 65.9828C65.1114 58.7928 77.9214 50.2128 102.101 50.1428C102.601 50.1428 103.071 50.3728 103.381 50.7528C103.691 51.1428 103.811 51.6528 103.701 52.1428C103.611 52.5528 101.351 62.3528 93.8014 71.2228C88.0814 77.9428 78.3714 85.0828 62.9214 85.0828ZM53.8014 80.9828C69.5814 83.7228 82.1614 79.7628 91.2114 69.1828C96.3014 63.2328 98.8614 56.6828 99.9014 53.4528C82.8614 53.8928 69.5014 58.9128 61.1814 68.0328C56.4514 73.2128 54.5114 78.4528 53.8014 80.9828Z" fill="url(#paint6_linear_2_4)"/>
<path d="M132.331 28.5127C135.461 28.5127 137.701 29.6327 139.171 31.4627C140.591 33.3527 141.231 35.9427 141.231 38.9527V41.0727C141.231 41.7827 140.641 42.3727 139.931 42.3727C139.221 42.3727 138.631 41.7827 138.631 41.0727V38.7727C138.631 36.5927 138.221 34.6427 137.211 33.2327C136.211 31.8127 134.671 30.9927 132.371 30.9927C130.071 30.9927 128.541 31.8227 127.531 33.2327C126.531 34.6527 126.111 36.5927 126.111 38.7727V60.2427C126.111 62.4227 126.521 64.3727 127.531 65.7227C128.531 67.1427 130.071 67.9627 132.371 67.9627C134.671 67.9627 136.201 67.1327 137.211 65.7227C138.211 64.3627 138.631 62.4227 138.631 60.2427V56.6427C138.631 55.9327 139.221 55.3427 139.931 55.3427C140.641 55.3427 141.231 55.9327 141.231 56.6427V60.0627C141.231 63.0727 140.581 65.6627 139.171 67.4927C137.701 69.3827 135.451 70.5027 132.331 70.5027C129.211 70.5027 126.961 69.3827 125.551 67.4927C124.081 65.6627 123.431 63.0727 123.431 60.0627V38.9527C123.431 35.9427 124.081 33.3527 125.551 31.4627C126.971 29.6327 129.211 28.5127 132.331 28.5127Z" fill="#1D1D1B"/>
<path d="M154.501 28.5127C157.631 28.5127 159.871 29.6327 161.341 31.4627C162.761 33.3527 163.401 35.9427 163.401 38.9527V39.9527C163.401 43.6727 161.811 46.6727 158.861 48.0927C158.451 48.3327 158.451 48.6827 158.861 48.8627C161.991 50.2227 163.401 53.1727 163.401 56.8827V60.0627C163.401 63.0727 162.751 65.6627 161.341 67.4927C159.871 69.3827 157.621 70.5027 154.501 70.5027C151.381 70.5027 149.131 69.3827 147.721 67.4927C146.251 65.6627 145.601 63.0727 145.601 60.0627V57.2327C145.601 56.5227 146.191 55.9327 146.901 55.9327C147.611 55.9327 148.201 56.5227 148.201 57.2327V60.1827C148.201 62.4827 148.611 64.3727 149.621 65.7827C150.621 67.2027 152.161 68.0227 154.461 68.0227C159.001 68.0227 160.711 64.7227 160.711 60.0027V56.8127C160.711 52.5027 158.591 50.0327 154.581 49.8527H153.051C152.341 49.8527 151.811 49.3227 151.811 48.6127C151.811 47.9027 152.341 47.3727 153.051 47.3727H154.701C158.471 47.1327 160.721 44.4827 160.721 40.4727V39.0027C160.721 34.2827 159.011 30.9827 154.471 30.9827C149.931 30.9827 148.221 34.2827 148.221 38.7627V40.2927C148.221 41.0027 147.631 41.5927 146.921 41.5927C146.211 41.5927 145.621 41.0027 145.621 40.2927V38.9327C145.621 35.9227 146.271 33.3327 147.741 31.4427C149.161 29.6127 151.401 28.4927 154.521 28.4927L154.501 28.5127Z" fill="#1D1D1B"/>
<path d="M194.781 31.2827H185.871C185.521 31.2827 185.281 31.5227 185.281 31.8727L184.221 60.0027C184.041 62.8327 183.811 65.3127 182.801 67.1427C181.801 68.9727 180.031 70.0927 176.961 70.1527C176.251 70.1527 175.661 69.5627 175.661 68.8527C175.661 68.2027 176.251 67.6127 176.901 67.6127C179.261 67.5527 180.091 66.5527 180.671 65.3727C181.321 64.0127 181.441 62.1327 181.501 60.0627L182.681 30.5127C182.681 29.5727 183.511 28.8027 184.451 28.8027H196.361C197.361 28.8027 198.131 29.5727 198.131 30.5727V68.6727C198.131 69.4427 197.481 70.0927 196.771 70.0927C196.001 70.0927 195.351 69.4427 195.351 68.6727V31.8727C195.351 31.5227 195.111 31.2827 194.761 31.2827H194.781Z" fill="#1D1D1B"/>
<path d="M202.741 60.0627V38.9527C202.741 35.9427 203.451 33.3527 204.921 31.4627C206.341 29.6327 208.641 28.5127 211.761 28.5127C214.881 28.5127 217.251 29.6327 218.721 31.4627C220.191 33.3527 220.901 35.9427 220.901 38.9527V60.0627C220.901 63.0727 220.191 65.6627 218.721 67.4927C217.251 69.3827 214.891 70.5027 211.761 70.5027C208.631 70.5027 206.331 69.3827 204.921 67.4927C203.451 65.6627 202.741 63.0727 202.741 60.0627ZM205.451 38.7727V60.2427C205.451 64.7227 207.221 68.0227 211.761 68.0227C216.301 68.0227 218.191 64.7227 218.191 60.2427V38.7727C218.191 34.2927 216.301 30.9927 211.761 30.9927C207.221 30.9927 205.451 34.2927 205.451 38.7727Z" fill="#1D1D1B"/>
<path d="M233.881 70.1527C233.111 70.1527 232.521 69.5627 232.521 68.7927V32.2327C232.521 31.7627 232.111 31.3527 231.641 31.3527H225.331C224.621 31.3527 224.091 30.8227 224.091 30.1127C224.091 29.4027 224.621 28.8727 225.331 28.8727H242.371C243.081 28.8727 243.611 29.4027 243.611 30.1127C243.611 30.8227 243.081 31.3527 242.371 31.3527H236.121C235.651 31.3527 235.241 31.7627 235.241 32.2327V68.7927C235.241 69.5627 234.651 70.1527 233.881 70.1527Z" fill="#1D1D1B"/>
<path d="M248.091 60.0627V38.9527C248.091 35.9427 248.801 33.3527 250.271 31.4627C251.691 29.6327 253.991 28.5127 257.111 28.5127C260.231 28.5127 262.601 29.6327 264.071 31.4627C265.541 33.3527 266.251 35.9427 266.251 38.9527V60.0627C266.251 63.0727 265.541 65.6627 264.071 67.4927C262.601 69.3827 260.241 70.5027 257.111 70.5027C253.981 70.5027 251.681 69.3827 250.271 67.4927C248.801 65.6627 248.091 63.0727 248.091 60.0627ZM250.801 38.7727V60.2427C250.801 64.7227 252.571 68.0227 257.111 68.0227C261.651 68.0227 263.541 64.7227 263.541 60.2427V38.7727C263.541 34.2927 261.651 30.9927 257.111 30.9927C252.571 30.9927 250.801 34.2927 250.801 38.7727Z" fill="#1D1D1B"/>
<path d="M279.461 28.5127C282.591 28.5127 284.831 29.6327 286.301 31.4627C287.721 33.3527 288.361 35.9427 288.361 38.9527V41.0727C288.361 41.7827 287.771 42.3727 287.061 42.3727C286.351 42.3727 285.761 41.7827 285.761 41.0727V38.7727C285.761 36.5927 285.351 34.6427 284.341 33.2327C283.341 31.8127 281.801 30.9927 279.501 30.9927C277.201 30.9927 275.671 31.8227 274.661 33.2327C273.661 34.6527 273.241 36.5927 273.241 38.7727V60.2427C273.241 62.4227 273.651 64.3727 274.661 65.7227C275.661 67.1427 277.201 67.9627 279.501 67.9627C281.801 67.9627 283.331 67.1327 284.341 65.7227C285.341 64.3627 285.761 62.4227 285.761 60.2427V56.6427C285.761 55.9327 286.351 55.3427 287.061 55.3427C287.771 55.3427 288.361 55.9327 288.361 56.6427V60.0627C288.361 63.0727 287.711 65.6627 286.301 67.4927C284.831 69.3827 282.581 70.5027 279.461 70.5027C276.341 70.5027 274.091 69.3827 272.681 67.4927C271.211 65.6627 270.561 63.0727 270.561 60.0627V38.9527C270.561 35.9427 271.211 33.3527 272.681 31.4627C274.101 29.6327 276.341 28.5127 279.461 28.5127Z" fill="#1D1D1B"/>
<defs>
<linearGradient id="paint0_linear_2_4" x1="45.4614" y1="7.69274" x2="45.4614" y2="86.9027" gradientUnits="userSpaceOnUse">
<stop stop-color="#DC7C93"/>
<stop offset="0.09" stop-color="#D37A93"/>
<stop offset="0.24" stop-color="#BC7594"/>
<stop offset="0.43" stop-color="#976D95"/>
<stop offset="0.65" stop-color="#636197"/>
<stop offset="0.89" stop-color="#21539A"/>
<stop offset="1" stop-color="#004C9C"/>
</linearGradient>
<linearGradient id="paint1_linear_2_4" x1="58.2914" y1="7.69273" x2="58.2914" y2="86.9027" gradientUnits="userSpaceOnUse">
<stop stop-color="#DC7C93"/>
<stop offset="0.09" stop-color="#D37A93"/>
<stop offset="0.24" stop-color="#BC7594"/>
<stop offset="0.43" stop-color="#976D95"/>
<stop offset="0.65" stop-color="#636197"/>
<stop offset="0.89" stop-color="#21539A"/>
<stop offset="1" stop-color="#004C9C"/>
</linearGradient>
<linearGradient id="paint2_linear_2_4" x1="51.4814" y1="7.69274" x2="51.4814" y2="86.9027" gradientUnits="userSpaceOnUse">
<stop stop-color="#DC7C93"/>
<stop offset="0.09" stop-color="#D37A93"/>
<stop offset="0.24" stop-color="#BC7594"/>
<stop offset="0.43" stop-color="#976D95"/>
<stop offset="0.65" stop-color="#636197"/>
<stop offset="0.89" stop-color="#21539A"/>
<stop offset="1" stop-color="#004C9C"/>
</linearGradient>
<linearGradient id="paint3_linear_2_4" x1="32.3414" y1="7.69275" x2="32.3414" y2="86.9027" gradientUnits="userSpaceOnUse">
<stop stop-color="#DC7C93"/>
<stop offset="0.09" stop-color="#D37A93"/>
<stop offset="0.24" stop-color="#BC7594"/>
<stop offset="0.43" stop-color="#976D95"/>
<stop offset="0.65" stop-color="#636197"/>
<stop offset="0.89" stop-color="#21539A"/>
<stop offset="1" stop-color="#004C9C"/>
</linearGradient>
<linearGradient id="paint4_linear_2_4" x1="26.7914" y1="7.69275" x2="26.7914" y2="86.9028" gradientUnits="userSpaceOnUse">
<stop stop-color="#DC7C93"/>
<stop offset="0.09" stop-color="#D37A93"/>
<stop offset="0.24" stop-color="#BC7594"/>
<stop offset="0.43" stop-color="#976D95"/>
<stop offset="0.65" stop-color="#636197"/>
<stop offset="0.89" stop-color="#21539A"/>
<stop offset="1" stop-color="#004C9C"/>
</linearGradient>
<linearGradient id="paint5_linear_2_4" x1="71.4014" y1="7.69275" x2="71.4014" y2="86.9027" gradientUnits="userSpaceOnUse">
<stop stop-color="#DC7C93"/>
<stop offset="0.09" stop-color="#D37A93"/>
<stop offset="0.24" stop-color="#BC7594"/>
<stop offset="0.43" stop-color="#976D95"/>
<stop offset="0.65" stop-color="#636197"/>
<stop offset="0.89" stop-color="#21539A"/>
<stop offset="1" stop-color="#004C9C"/>
</linearGradient>
<linearGradient id="paint6_linear_2_4" x1="76.9514" y1="7.69276" x2="76.9514" y2="86.9028" gradientUnits="userSpaceOnUse">
<stop stop-color="#DC7C93"/>
<stop offset="0.09" stop-color="#D37A93"/>
<stop offset="0.24" stop-color="#BC7594"/>
<stop offset="0.43" stop-color="#976D95"/>
<stop offset="0.65" stop-color="#636197"/>
<stop offset="0.89" stop-color="#21539A"/>
<stop offset="1" stop-color="#004C9C"/>
</linearGradient>
</defs>
</svg>

<svg width="289" height="86" fill="none" xmlns="http://www.w3.org/2000/svg"><path d="M39.041 47.853c-.91 0-1.64-.74-1.64-1.64v-11.68c0-.51.23-.99.64-1.3l12.84-9.95a1.63 1.63 0 012.3.29c.56.72.43 1.75-.29 2.3l-12.2 9.46v10.88c0 .91-.74 1.64-1.64 1.64h-.01z" fill="url(#paint0_linear_2_4)"/><path d="M51.871 78.993c-.91 0-1.64-.74-1.64-1.64v-60.12c0-.63.36-1.2.92-1.47s1.23-.21 1.73.18l12.84 9.95c.4.31.64.79.64 1.3v19.54c0 .91-.74 1.64-1.64 1.64-.9 0-1.64-.74-1.64-1.64v-18.74l-9.55-7.41v56.77c0 .91-.74 1.64-1.64 1.64h-.02z" fill="url(#paint1_linear_2_4)"/><path d="M57.901 57.413c-.91 0-1.64-.74-1.64-1.64V4.993l-9.55 7.41v42.65c0 .91-.74 1.64-1.64 1.64-.9 0-1.64-.74-1.64-1.64v-43.45c0-.51.23-.99.64-1.3l12.82-9.96c.49-.38 1.17-.45 1.73-.18.56.28.92.85.92 1.47v54.13c0 .91-.74 1.64-1.64 1.64v.01z" fill="url(#paint2_linear_2_4)"/><path d="M51.811 83.743c-.12 0-.24-.01-.36-.04-16.3-3.66-28.45-14.64-35.13-31.75-5-12.8-5.18-24.36-5.19-24.84 0-.57.28-1.1.76-1.4a1.64 1.64 0 011.59-.1c22.68 10.79 32.34 25.56 36.45 36.05 4.49 11.45 3.55 20.26 3.51 20.63a1.634 1.634 0 01-1.63 1.45zm-37.23-53.94c.35 4.12 1.44 12.37 4.84 21.04 6.09 15.54 16.46 25.35 30.84 29.18.02-3.08-.39-9.61-3.45-17.34-3.76-9.5-12.4-22.74-32.23-32.88z" fill="url(#paint3_linear_2_4)"/><path d="M40.821 85.083c-15.45 0-25.16-7.15-30.88-13.86-7.55-8.88-9.81-18.67-9.9-19.09-.11-.49 0-1 .32-1.39.31-.39.78-.61 1.28-.61 24.18.07 36.99 8.65 43.48 15.84 7.11 7.88 8.38 15.72 8.43 16.05.13.87-.44 1.69-1.3 1.86-4.12.83-7.93 1.19-11.43 1.19v.01zm-36.99-31.63c1.04 3.23 3.6 9.78 8.7 15.73 9.05 10.57 21.63 14.54 37.41 11.8-.71-2.52-2.65-7.76-7.38-12.95-8.32-9.12-21.68-14.14-38.72-14.58h-.01z" fill="url(#paint4_linear_2_4)"/><path d="M51.931 83.743a1.634 1.634 0 01-1.63-1.45c-.04-.37-.98-9.18 3.51-20.63 4.11-10.49 13.77-25.27 36.45-36.05a1.64 1.64 0 011.59.1c.48.31.76.84.76 1.4 0 .49-.19 12.04-5.19 24.84-6.68 17.11-18.82 28.09-35.13 31.75-.12.03-.24.04-.36.04zm37.23-53.94c-19.83 10.14-28.47 23.38-32.23 32.88-3.06 7.73-3.46 14.26-3.45 17.34 14.38-3.83 24.75-13.64 30.84-29.18 3.4-8.67 4.49-16.92 4.84-21.04z" fill="url(#paint5_linear_2_4)"/><path d="M62.921 85.083c-3.51 0-7.31-.37-11.43-1.19-.86-.17-1.43-.99-1.3-1.86.05-.33 1.32-8.17 8.43-16.05 6.49-7.19 19.3-15.77 43.48-15.84.5 0 .97.23 1.28.61.31.39.43.9.32 1.39-.09.41-2.35 10.21-9.9 19.08-5.72 6.72-15.43 13.86-30.88 13.86zm-9.12-4.1c15.78 2.74 28.36-1.22 37.41-11.8 5.09-5.95 7.65-12.5 8.69-15.73-17.04.44-30.4 5.46-38.72 14.58-4.73 5.18-6.67 10.42-7.38 12.95z" fill="url(#paint6_linear_2_4)"/><path d="M132.331 28.513c3.13 0 5.37 1.12 6.84 2.95 1.42 1.89 2.06 4.48 2.06 7.49v2.12c0 .71-.59 1.3-1.3 1.3-.71 0-1.3-.59-1.3-1.3v-2.3c0-2.18-.41-4.13-1.42-5.54-1-1.42-2.54-2.24-4.84-2.24s-3.83.83-4.84 2.24c-1 1.42-1.42 3.36-1.42 5.54v21.47c0 2.18.41 4.13 1.42 5.48 1 1.42 2.54 2.24 4.84 2.24s3.83-.83 4.84-2.24c1-1.36 1.42-3.3 1.42-5.48v-3.6c0-.71.59-1.3 1.3-1.3.71 0 1.3.59 1.3 1.3v3.42c0 3.01-.65 5.6-2.06 7.43-1.47 1.89-3.72 3.01-6.84 3.01-3.12 0-5.37-1.12-6.78-3.01-1.47-1.83-2.12-4.42-2.12-7.43v-21.11c0-3.01.65-5.6 2.12-7.49 1.42-1.83 3.66-2.95 6.78-2.95zm22.17 0c3.13 0 5.37 1.12 6.84 2.95 1.42 1.89 2.06 4.48 2.06 7.49v1c0 3.72-1.59 6.72-4.54 8.14-.41.24-.41.59 0 .77 3.13 1.36 4.54 4.31 4.54 8.02v3.18c0 3.01-.65 5.6-2.06 7.43-1.47 1.89-3.72 3.01-6.84 3.01-3.12 0-5.37-1.12-6.78-3.01-1.47-1.83-2.12-4.42-2.12-7.43v-2.83c0-.71.59-1.3 1.3-1.3.71 0 1.3.59 1.3 1.3v2.95c0 2.3.41 4.19 1.42 5.6 1 1.42 2.54 2.24 4.84 2.24 4.54 0 6.25-3.3 6.25-8.02v-3.19c0-4.31-2.12-6.78-6.13-6.96h-1.53c-.71 0-1.24-.53-1.24-1.24s.53-1.24 1.24-1.24h1.65c3.77-.24 6.02-2.89 6.02-6.9v-1.47c0-4.72-1.71-8.02-6.25-8.02s-6.25 3.3-6.25 7.78v1.53c0 .71-.59 1.3-1.3 1.3-.71 0-1.3-.59-1.3-1.3v-1.36c0-3.01.65-5.6 2.12-7.49 1.42-1.83 3.66-2.95 6.78-2.95l-.02.02zm40.28 2.77h-8.91c-.35 0-.59.24-.59.59l-1.06 28.13c-.18 2.83-.41 5.31-1.42 7.14-1 1.83-2.77 2.95-5.84 3.01-.71 0-1.3-.59-1.3-1.3 0-.65.59-1.24 1.24-1.24 2.36-.06 3.19-1.06 3.77-2.24.65-1.36.77-3.24.83-5.31l1.18-29.55c0-.94.83-1.71 1.77-1.71h11.91c1 0 1.77.77 1.77 1.77v38.1c0 .77-.65 1.42-1.36 1.42-.77 0-1.42-.65-1.42-1.42v-36.8c0-.35-.24-.59-.59-.59h.02zm7.96 28.78v-21.11c0-3.01.71-5.6 2.18-7.49 1.42-1.83 3.72-2.95 6.84-2.95 3.12 0 5.49 1.12 6.96 2.95 1.47 1.89 2.18 4.48 2.18 7.49v21.11c0 3.01-.71 5.6-2.18 7.43-1.47 1.89-3.83 3.01-6.96 3.01s-5.43-1.12-6.84-3.01c-1.47-1.83-2.18-4.42-2.18-7.43zm2.71-21.29v21.47c0 4.48 1.77 7.78 6.31 7.78 4.54 0 6.43-3.3 6.43-7.78v-21.47c0-4.48-1.89-7.78-6.43-7.78s-6.31 3.3-6.31 7.78zm28.43 31.38c-.77 0-1.36-.59-1.36-1.36v-36.56c0-.47-.41-.88-.88-.88h-6.31c-.71 0-1.24-.53-1.24-1.24s.53-1.24 1.24-1.24h17.04c.71 0 1.24.53 1.24 1.24s-.53 1.24-1.24 1.24h-6.25c-.47 0-.88.41-.88.88v36.56c0 .77-.59 1.36-1.36 1.36zm14.21-10.09v-21.11c0-3.01.71-5.6 2.18-7.49 1.42-1.83 3.72-2.95 6.84-2.95 3.12 0 5.49 1.12 6.96 2.95 1.47 1.89 2.18 4.48 2.18 7.49v21.11c0 3.01-.71 5.6-2.18 7.43-1.47 1.89-3.83 3.01-6.96 3.01s-5.43-1.12-6.84-3.01c-1.47-1.83-2.18-4.42-2.18-7.43zm2.71-21.29v21.47c0 4.48 1.77 7.78 6.31 7.78 4.54 0 6.43-3.3 6.43-7.78v-21.47c0-4.48-1.89-7.78-6.43-7.78s-6.31 3.3-6.31 7.78zm28.66-10.26c3.13 0 5.37 1.12 6.84 2.95 1.42 1.89 2.06 4.48 2.06 7.49v2.12c0 .71-.59 1.3-1.3 1.3-.71 0-1.3-.59-1.3-1.3v-2.3c0-2.18-.41-4.13-1.42-5.54-1-1.42-2.54-2.24-4.84-2.24s-3.83.83-4.84 2.24c-1 1.42-1.42 3.36-1.42 5.54v21.47c0 2.18.41 4.13 1.42 5.48 1 1.42 2.54 2.24 4.84 2.24s3.83-.83 4.84-2.24c1-1.36 1.42-3.3 1.42-5.48v-3.6c0-.71.59-1.3 1.3-1.3.71 0 1.3.59 1.3 1.3v3.42c0 3.01-.65 5.6-2.06 7.43-1.47 1.89-3.72 3.01-6.84 3.01-3.12 0-5.37-1.12-6.78-3.01-1.47-1.83-2.12-4.42-2.12-7.43v-21.11c0-3.01.65-5.6 2.12-7.49 1.42-1.83 3.66-2.95 6.78-2.95z" fill="#1D1D1B"/><defs><linearGradient id="paint0_linear_2_4" x1="45.461" y1="7.693" x2="45.461" y2="86.903" gradientUnits="userSpaceOnUse"><stop stop-color="#DC7C93"/><stop offset=".09" stop-color="#D37A93"/><stop offset=".24" stop-color="#BC7594"/><stop offset=".43" stop-color="#976D95"/><stop offset=".65" stop-color="#636197"/><stop offset=".89" stop-color="#21539A"/><stop offset="1" stop-color="#004C9C"/></linearGradient><linearGradient id="paint1_linear_2_4" x1="58.291" y1="7.693" x2="58.291" y2="86.903" gradientUnits="userSpaceOnUse"><stop stop-color="#DC7C93"/><stop offset=".09" stop-color="#D37A93"/><stop offset=".24" stop-color="#BC7594"/><stop offset=".43" stop-color="#976D95"/><stop offset=".65" stop-color="#636197"/><stop offset=".89" stop-color="#21539A"/><stop offset="1" stop-color="#004C9C"/></linearGradient><linearGradient id="paint2_linear_2_4" x1="51.481" y1="7.693" x2="51.481" y2="86.903" gradientUnits="userSpaceOnUse"><stop stop-color="#DC7C93"/><stop offset=".09" stop-color="#D37A93"/><stop offset=".24" stop-color="#BC7594"/><stop offset=".43" stop-color="#976D95"/><stop offset=".65" stop-color="#636197"/><stop offset=".89" stop-color="#21539A"/><stop offset="1" stop-color="#004C9C"/></linearGradient><linearGradient id="paint3_linear_2_4" x1="32.341" y1="7.693" x2="32.341" y2="86.903" gradientUnits="userSpaceOnUse"><stop stop-color="#DC7C93"/><stop offset=".09" stop-color="#D37A93"/><stop offset=".24" stop-color="#BC7594"/><stop offset=".43" stop-color="#976D95"/><stop offset=".65" stop-color="#636197"/><stop offset=".89" stop-color="#21539A"/><stop offset="1" stop-color="#004C9C"/></linearGradient><linearGradient id="paint4_linear_2_4" x1="26.791" y1="7.693" x2="26.791" y2="86.903" gradientUnits="userSpaceOnUse"><stop stop-color="#DC7C93"/><stop offset=".09" stop-color="#D37A93"/><stop offset=".24" stop-color="#BC7594"/><stop offset=".43" stop-color="#976D95"/><stop offset=".65" stop-color="#636197"/><stop offset=".89" stop-color="#21539A"/><stop offset="1" stop-color="#004C9C"/></linearGradient><linearGradient id="paint5_linear_2_4" x1="71.401" y1="7.693" x2="71.401" y2="86.903" gradientUnits="userSpaceOnUse"><stop stop-color="#DC7C93"/><stop offset=".09" stop-color="#D37A93"/><stop offset=".24" stop-color="#BC7594"/><stop offset=".43" stop-color="#976D95"/><stop offset=".65" stop-color="#636197"/><stop offset=".89" stop-color="#21539A"/><stop offset="1" stop-color="#004C9C"/></linearGradient><linearGradient id="paint6_linear_2_4" x1="76.951" y1="7.693" x2="76.951" y2="86.903" gradientUnits="userSpaceOnUse"><stop stop-color="#DC7C93"/><stop offset=".09" stop-color="#D37A93"/><stop offset=".24" stop-color="#BC7594"/><stop offset=".43" stop-color="#976D95"/><stop offset=".65" stop-color="#636197"/><stop offset=".89" stop-color="#21539A"/><stop offset="1" stop-color="#004C9C"/></linearGradient></defs></svg>
